icon/lg/kallithea.svg

<?xml version="1.0" encoding="UTF-8" standalone="no"?>
<svg viewBox="0 0 256 709" version="1.1" xmlns="http://www.w3.org/2000/svg" xmlns:xlink="http://www.w3.org/1999/xlink" preserveAspectRatio="xMidYMid" height="1em" width="1em">
  <g>
    <path d="M256,315.320909 C256,298.145139 242.028028,284.173167 224.852258,284.173167 C207.676488,284.173167 193.704517,298.145139 193.704517,315.320909 C193.704517,329.068988 202.665556,340.743394 215.048956,344.864086 L215.048956,382.078254 C215.048956,382.078254 215.016971,383.874727 214.0521,386.071008 C213.081898,388.267289 212.719405,388.736397 212.719405,388.736397 L129.617891,474.332716 L130.785332,288.98153 C130.785332,288.98153 129.996377,278.794411 132.779043,274.327218 C135.56171,269.865356 139.607771,267.167982 139.607771,267.167982 L186.070841,219.372217 C186.070841,219.372217 194.024363,212.20232 195.730213,207.212711 C197.436062,202.228432 196.561814,184.89807 196.561814,184.89807 L194.802657,84.4928472 C212.905983,79.3966225 226.227599,62.7752535 226.227599,43.0673636 C226.227599,19.3187431 206.908856,0 183.160236,0 C159.416946,0 140.098203,19.3187431 140.098203,43.0673636 C140.098203,62.8178998 153.473127,79.4605918 171.635092,84.5195011 L172.914478,185.233909 C172.914478,185.233909 173.868688,193.262062 172.914478,196.556483 C171.9656,199.856236 168.255378,203.886304 168.255378,203.886304 L119.622681,253.846365 C119.622681,253.846365 109.590155,264.790455 107.969598,268.335423 C106.34371,271.87506 107.132666,289.317369 107.132666,289.317369 L107.132666,366.58701 L62.3381296,324.788372 C62.3381296,324.788372 60.5043417,323.050538 59.1716469,319.793432 C57.8389522,316.530996 58.3400454,310.800408 58.3400454,310.800408 L56.9007351,182.333965 C78.8955292,178.064011 95.5595444,158.681299 95.5595444,135.455094 C95.5595444,109.105054 74.124482,87.6753222 47.7797722,87.6753222 C21.4297316,87.6753222 0,109.105054 0,135.455094 C0,158.82523 16.8772463,178.298565 39.0799409,182.403265 L40.5192512,315.46484 C40.5192512,315.46484 40.0874581,322.490806 42.0225309,326.451575 C43.9522729,330.417675 48.3501655,335.780439 48.3501655,335.780439 L102.638819,388.235304 C102.638819,388.235304 104.35533,390.245008 107.132666,395.730379 L106.967411,530.790996 C106.967411,530.790996 108.401391,544.704329 96.3111842,545.946401 L55.0083085,545.946401 L55.0083085,546.14364 L54.8483851,546.14364 L54.8483851,662.370614 L88.1550924,662.370614 L88.1550924,662.184037 L88.3150157,662.184037 L88.3150157,579.450347 L187.222289,579.450347 L187.222289,579.253108 L187.403536,579.253108 L187.403536,545.946401 L141.942652,545.946401 C133.253483,544.512421 129.964392,539.03238 129.282052,530.790996 L129.452637,503.977178 C133.690607,495.122754 142.273161,486.828062 142.273161,486.828062 L228.535827,397.564167 C228.535827,397.564167 231.734294,394.84547 233.035004,389.903838 C234.389022,384.775628 234.532953,380.574974 234.532953,380.574974 L234.383691,344.965371 C246.911022,340.92464 256,329.170273 256,315.320909 L256,315.320909 Z M149.640297,43.0673636 C149.640297,24.580222 164.673094,9.54209441 183.160236,9.54209441 C201.647377,9.54209441 216.685505,24.580222 216.685505,43.0673636 C216.685505,61.5545051 201.647377,76.5926327 183.160236,76.5926327 C164.673094,76.5926327 149.640297,61.5545051 149.640297,43.0673636 L149.640297,43.0673636 Z M9.54209441,135.455094 C9.54209441,114.371863 26.6965412,97.2174167 47.7797722,97.2174167 C68.8630031,97.2174167 86.01745,114.371863 86.01745,135.455094 C86.01745,156.538325 68.8630031,173.692772 47.7797722,173.692772 C26.6965412,173.692772 9.54209441,156.538325 9.54209441,135.455094 L9.54209441,135.455094 Z M224.852258,336.926556 C212.937967,336.926556 203.246611,327.229869 203.246611,315.320909 C203.246611,303.406618 212.937967,293.715261 224.852258,293.715261 C236.766549,293.715261 246.457906,303.406618 246.457906,315.320909 C246.457906,327.229869 236.766549,336.926556 224.852258,336.926556 Z M154.44866,675.590946 L54.8483851,675.590946 L54.8483851,708.897653 L187.755367,708.897653 L187.755367,592.505424 L154.44866,592.505424 L154.44866,675.590946 Z" fill="#587635"/>
  </g>
</svg>

<svg width="256" height="709" xmlns="http://www.w3.org/2000/svg" preserveAspectRatio="xMidYMid"><path d="M256 315.32c0-17.175-13.972-31.147-31.148-31.147-17.176 0-31.147 13.972-31.147 31.148 0 13.748 8.96 25.422 21.344 29.543v37.214s-.032 1.797-.997 3.993c-.97 2.196-1.333 2.665-1.333 2.665l-83.101 85.597 1.167-185.351s-.789-10.188 1.994-14.655c2.783-4.462 6.829-7.159 6.829-7.159l46.463-47.796s7.953-7.17 9.66-12.16c1.705-4.984.83-22.314.83-22.314l-1.758-100.405c18.103-5.096 31.425-21.718 31.425-41.426C226.228 19.32 206.908 0 183.16 0c-23.743 0-43.062 19.319-43.062 43.067 0 19.75 13.375 36.394 31.537 41.453l1.28 100.714s.954 8.028 0 11.322c-.95 3.3-4.66 7.33-4.66 7.33l-48.632 49.96s-10.033 10.944-11.653 14.49c-1.626 3.54-.837 20.981-.837 20.981v77.27l-44.795-41.799s-1.834-1.737-3.166-4.995c-1.333-3.262-.832-8.993-.832-8.993L56.9 182.334c21.996-4.27 38.66-23.653 38.66-46.879 0-26.35-21.436-47.78-47.78-47.78-26.35 0-47.78 21.43-47.78 47.78 0 23.37 16.877 42.844 39.08 46.948l1.44 133.062s-.433 7.026 1.503 10.987c1.93 3.966 6.327 9.328 6.327 9.328l54.289 52.455s1.716 2.01 4.494 7.495l-.166 135.061s1.434 13.913-10.656 15.155H55.008v.198h-.16V662.37h33.307v-.187h.16V579.45h98.907v-.197h.182v-33.307h-45.461c-8.69-1.434-11.979-6.914-12.66-15.155l.17-26.814c4.238-8.854 12.82-17.149 12.82-17.149l86.263-89.264s3.198-2.719 4.499-7.66c1.354-5.128 1.498-9.329 1.498-9.329l-.15-35.61C246.912 340.925 256 329.17 256 315.321ZM149.64 43.068c0-18.487 15.033-33.525 33.52-33.525 18.487 0 33.526 15.038 33.526 33.525 0 18.488-15.039 33.526-33.526 33.526-18.487 0-33.52-15.038-33.52-33.526ZM9.542 135.455c0-21.083 17.155-38.238 38.238-38.238s38.237 17.155 38.237 38.238-17.154 38.238-38.237 38.238c-21.083 0-38.238-17.155-38.238-38.238Zm215.31 201.472c-11.914 0-21.605-9.697-21.605-21.606 0-11.914 9.691-21.606 21.605-21.606 11.915 0 21.606 9.692 21.606 21.606 0 11.909-9.691 21.606-21.606 21.606ZM154.45 675.59h-99.6v33.307h132.906V592.505H154.45v83.086Z" fill="#587635"/></svg>
